X:224
T:Jeanie's Blue E'en 
C:Joe Buchanan's Scottish Tome - Page 290.2
I:290 2
Z:Carl Allison
R:Jig
L:1/8
M:6/8
K:D
A | "D"dcd AFA | "G"dcd "A7"e2 g | "D"fed "B7"Adc | "Em"efd "A7"d2 A |
"D"dcd AFA | "G"dcd "A7"(e2 g) | "D"fed "A7"Adc | "D"d3 d2 :| 
A | "D"d2 d dcd | "Em"f2 ff3 | "A7"e2 e ede | "D"f2 f f3|
"Bm"d2 d dcd | "Em"e2 e dfg | "D"fed "A7"Adc | "D"d3 d2 :|

